svg/arrow.svg

<?xml version="1.0" encoding="UTF-8" standalone="no"?>
<!DOCTYPE svg PUBLIC "-//W3C//DTD SVG 1.1//EN" "http://www.w3.org/Graphics/SVG/1.1/DTD/svg11.dtd">
<svg width="100%" height="100%" viewBox="0 0 33 20" version="1.1" xmlns="http://www.w3.org/2000/svg" xmlns:xlink="http://www.w3.org/1999/xlink" xml:space="preserve" xmlns:serif="http://www.serif.com/" style="fill-rule:evenodd;clip-rule:evenodd;stroke-linejoin:round;stroke-miterlimit:2;">
    <g transform="matrix(1,0,0,1,-1730.66,-1000.98)">
        <g transform="matrix(1,0,0,1,787.075,0)">
            <g transform="matrix(1,0,0,0.536923,0,468.771)">
                <path d="M958.536,992.404c0.379,-0.756 0.909,-1.186 1.464,-1.186c0.555,-0 1.085,0.43 1.464,1.186l14.417,28.835c0.542,1.085 0.688,2.666 0.37,4.025c-0.318,1.359 -1.038,2.238 -1.834,2.238l-28.834,0c-0.796,0 -1.516,-0.879 -1.834,-2.238c-0.318,-1.359 -0.172,-2.94 0.37,-4.025l14.417,-28.835Z" style="fill:url(#_Linear1);"/>
            </g>
        </g>
    </g>
    <defs>
        <linearGradient id="_Linear1" x1="0" y1="0" x2="1" y2="0" gradientUnits="userSpaceOnUse" gradientTransform="matrix(1.16341e-15,-35.3868,19,2.16682e-15,960,1043.41)"><stop offset="0" style="stop-color:white;stop-opacity:1"/><stop offset="1" style="stop-color:rgb(180,180,180);stop-opacity:1"/></linearGradient>
    </defs>
</svg>

<?xml version="1.0" encoding="UTF-8" standalone="no"?>
<!DOCTYPE svg PUBLIC "-//W3C//DTD SVG 1.1//EN" "http://www.w3.org/Graphics/SVG/1.1/DTD/svg11.dtd">
<svg width="100%" height="100%" viewBox="0 0 138 84" version="1.1" xmlns="http://www.w3.org/2000/svg" xmlns:xlink="http://www.w3.org/1999/xlink" xml:space="preserve" xmlns:serif="http://www.serif.com/" style="fill-rule:evenodd;clip-rule:evenodd;stroke-linejoin:round;stroke-miterlimit:2;">
    <g transform="matrix(1,0,0,1,-758.242,-2137.25)">
        <g id="arrow.svg" transform="matrix(4.16667,0,0,4.16667,826.992,2178.92)">
            <g transform="matrix(1,0,0,1,-16.5,-10)">
                <clipPath id="_clip1">
                    <rect x="0" y="0" width="33" height="20"/>
                </clipPath>
                <g clip-path="url(#_clip1)">
                    <g transform="matrix(1,0,0,0.536923,-943.583,-532.208)">
                        <path d="M958.536,992.404C958.915,991.648 959.445,991.218 960,991.218C960.555,991.218 961.085,991.648 961.464,992.404L975.881,1021.24C976.423,1022.32 976.569,1023.9 976.251,1025.26C975.933,1026.62 975.213,1027.5 974.417,1027.5L945.583,1027.5C944.787,1027.5 944.067,1026.62 943.749,1025.26C943.431,1023.9 943.577,1022.32 944.119,1021.24L958.536,992.404Z" style="fill:rgb(181,181,181);"/>
                    </g>
                </g>
            </g>
        </g>
    </g>
</svg>
